elementary-xfce/mimes/64/application-pdf.svg

<?xml version="1.0" encoding="UTF-8" standalone="no"?>
<svg
   id="svg3844"
   height="64"
   width="64"
   version="1.1"
   sodipodi:docname="application-pdf.svg"
   inkscape:version="1.1.1 (3bf5ae0d25, 2021-09-20)"
   xmlns:inkscape="http://www.inkscape.org/namespaces/inkscape"
   xmlns:sodipodi="http://sodipodi.sourceforge.net/DTD/sodipodi-0.dtd"
   xmlns:xlink="http://www.w3.org/1999/xlink"
   xmlns="http://www.w3.org/2000/svg"
   xmlns:svg="http://www.w3.org/2000/svg"
   xmlns:rdf="http://www.w3.org/1999/02/22-rdf-syntax-ns#"
   xmlns:cc="http://creativecommons.org/ns#"
   xmlns:dc="http://purl.org/dc/elements/1.1/">
  <sodipodi:namedview
     id="namedview37"
     pagecolor="#ffffff"
     bordercolor="#666666"
     borderopacity="1.0"
     inkscape:pageshadow="2"
     inkscape:pageopacity="0.0"
     inkscape:pagecheckerboard="0"
     showgrid="false"
     inkscape:zoom="7.5351066"
     inkscape:cx="37.955667"
     inkscape:cy="26.277"
     inkscape:window-width="1396"
     inkscape:window-height="896"
     inkscape:window-x="395"
     inkscape:window-y="134"
     inkscape:window-maximized="0"
     inkscape:current-layer="svg3844"
     inkscape:snap-object-midpoints="true"
     inkscape:snap-center="true" />
  <defs
     id="defs3846">
    <linearGradient
       gradientTransform="matrix(1.0843523,0,0,1.1997367,79.550862,-4.1628601)"
       gradientUnits="userSpaceOnUse"
       xlink:href="#linearGradient3104-6"
       id="linearGradient3033"
       y2="2.9062471"
       x2="-51.786404"
       y1="50.786446"
       x1="-51.786404" />
    <linearGradient
       id="linearGradient3104-6">
      <stop
         offset="0"
         style="stop-color:#000000;stop-opacity:0.31782946"
         id="stop3106-3" />
      <stop
         offset="1"
         style="stop-color:#000000;stop-opacity:0.24031007"
         id="stop3108-9" />
    </linearGradient>
    <linearGradient
       gradientTransform="matrix(1.2162162,0,0,1.5405376,2.8108184,-6.9729501)"
       gradientUnits="userSpaceOnUse"
       xlink:href="#linearGradient3977-4"
       id="linearGradient3093"
       y2="42.100208"
       x2="23.99999"
       y1="5.8641062"
       x1="23.99999" />
    <linearGradient
       id="linearGradient3977-4">
      <stop
         offset="0"
         style="stop-color:#ffffff;stop-opacity:1"
         id="stop3979-7" />
      <stop
         offset="0.01214366"
         style="stop-color:#ffffff;stop-opacity:0.23529412"
         id="stop3981-6" />
      <stop
         offset="0.98781353"
         style="stop-color:#ffffff;stop-opacity:0.15686275"
         id="stop3983-5" />
      <stop
         offset="1"
         style="stop-color:#ffffff;stop-opacity:0.39215687"
         id="stop3985-6" />
    </linearGradient>
    <linearGradient
       gradientTransform="matrix(1.3142827,0,0,1.2602393,0.4572141,-2.1793201)"
       gradientUnits="userSpaceOnUse"
       xlink:href="#linearGradient3600-9"
       id="linearGradient3096"
       y2="47.013336"
       x2="25.132275"
       y1="0.98520643"
       x1="25.132275" />
    <linearGradient
       id="linearGradient3600-9">
      <stop
         offset="0"
         style="stop-color:#f4f4f4;stop-opacity:1"
         id="stop3602-3" />
      <stop
         offset="1"
         style="stop-color:#dbdbdb;stop-opacity:1"
         id="stop3604-7" />
    </linearGradient>
    <radialGradient
       gradientTransform="matrix(0.03132633,0,0,0.02058823,35.220859,49.45142)"
       gradientUnits="userSpaceOnUse"
       xlink:href="#linearGradient5060"
       id="radialGradient3153"
       fy="486.64789"
       fx="605.71429"
       r="117.14286"
       cy="486.64789"
       cx="605.71429" />
    <linearGradient
       id="linearGradient5060">
      <stop
         offset="0"
         style="stop-color:#000000;stop-opacity:1"
         id="stop5062" />
      <stop
         offset="1"
         style="stop-color:#000000;stop-opacity:0"
         id="stop5064" />
    </linearGradient>
    <radialGradient
       gradientTransform="matrix(-0.03132632,0,0,0.02058823,28.779136,49.45142)"
       gradientUnits="userSpaceOnUse"
       xlink:href="#linearGradient5060"
       id="radialGradient3156"
       fy="486.64789"
       fx="605.71429"
       r="117.14286"
       cy="486.64789"
       cx="605.71429" />
    <linearGradient
       id="linearGradient5048">
      <stop
         offset="0"
         style="stop-color:#000000;stop-opacity:0"
         id="stop5050" />
      <stop
         offset="0.5"
         style="stop-color:#000000;stop-opacity:1"
         id="stop5056" />
      <stop
         offset="1"
         style="stop-color:#000000;stop-opacity:0"
         id="stop5052" />
    </linearGradient>
    <linearGradient
       gradientTransform="matrix(0.09153846,0,0,0.02058823,-1.084616,49.45142)"
       gradientUnits="userSpaceOnUse"
       xlink:href="#linearGradient5048"
       id="linearGradient3842"
       y2="609.50507"
       x2="302.85715"
       y1="366.64789"
       x1="302.85715" />
    <radialGradient
       xlink:href="#linearGradient3242-4"
       id="radialGradient3988-4"
       gradientUnits="userSpaceOnUse"
       gradientTransform="matrix(0,10.087121,-12.383763,0,155.87414,-97.777058)"
       cx="8.276144"
       cy="9.9941158"
       fx="8.276144"
       fy="9.9941158"
       r="12.671875" />
    <linearGradient
       id="linearGradient3242-4">
      <stop
         offset="0"
         style="stop-color:#f89b7e;stop-opacity:1"
         id="stop3244-7" />
      <stop
         offset="0.26238"
         style="stop-color:#e35d4f;stop-opacity:1"
         id="stop3246-1" />
      <stop
         offset="0.66093999"
         style="stop-color:#c6262e;stop-opacity:1"
         id="stop3248-5" />
      <stop
         offset="1"
         style="stop-color:#690b2c;stop-opacity:1"
         id="stop3250-7" />
    </linearGradient>
  </defs>
  <metadata
     id="metadata3849">
    <rdf:RDF>
      <cc:Work
         rdf:about="">
        <dc:format>image/svg+xml</dc:format>
        <dc:type
           rdf:resource="http://purl.org/dc/dcmitype/StillImage" />
      </cc:Work>
    </rdf:RDF>
  </metadata>
  <rect
     width="44.199997"
     height="5"
     x="9.8999996"
     y="57.000004"
     id="rect2879"
     style="display:inline;overflow:visible;visibility:visible;opacity:0.15;fill:url(#linearGradient3842);fill-opacity:1;fill-rule:nonzero;stroke:none;stroke-width:1;marker:none" />
  <path
     d="m 9.9,57.00022 c 0,0 0,4.9997 0,4.9997 -1.6132281,0.01 -3.9,-1.1202 -3.9,-2.5002 0,-1.38 1.8002408,-2.4995 3.9,-2.4995 z"
     id="path2881"
     style="display:inline;overflow:visible;visibility:visible;opacity:0.15;fill:url(#radialGradient3156);fill-opacity:1;fill-rule:nonzero;stroke:none;stroke-width:1;marker:none" />
  <path
     d="m 54.099999,57.00022 c 0,0 0,4.9997 0,4.9997 C 55.713227,62.00992 58,60.87972 58,59.49972 c 0,-1.38 -1.800241,-2.4995 -3.900001,-2.4995 z"
     id="path2883"
     style="display:inline;overflow:visible;visibility:visible;opacity:0.15;fill:url(#radialGradient3153);fill-opacity:1;fill-rule:nonzero;stroke:none;stroke-width:1;marker:none" />
  <path
     d="m 9,0.9998799 c 10.540935,0 45.999945,0.004 45.999945,0.004 L 55,59.00002 c 0,0 -30.666666,0 -46,0 0,-19.3334 0,-38.6665 0,-57.9998201 z"
     id="path4160-6"
     style="display:inline;fill:url(#linearGradient3096);fill-opacity:1;stroke:none" />
  <path
     d="M 54.499999,58.50002 H 9.4999998 V 1.4999799 H 54.499999 Z"
     id="rect6741-1-8"
     style="fill:none;stroke:url(#linearGradient3093);stroke-width:1;stroke-linecap:round;stroke-linejoin:miter;stroke-miterlimit:4;stroke-dasharray:none;stroke-dashoffset:0;stroke-opacity:1" />
  <path
     d="m 8.4999684,0.4998999 c 10.7700936,0 47.0000286,0.004 47.0000286,0.004 l 4.9e-5,58.9962201 c 0,0 -31.333384,0 -47.0000776,0 0,-19.6668 0,-39.3334 0,-58.9999701 z"
     id="path4160-6-1"
     style="display:inline;fill:none;stroke:url(#linearGradient3033);stroke-width:0.999922;stroke-linecap:butt;stroke-linejoin:round;stroke-miterlimit:4;stroke-dasharray:none;stroke-dashoffset:0;stroke-opacity:1" />
  <path
     id="path6711"
     d="M 37.875,0.9999503 C 24.426461,12.539529 14.910308,17.33258 9,19.31245 v 6.125 c 3.284751,-0.967238 7.356975,-2.565106 11.59375,-5.21875 9.747583,-6.105262 21.375,-17.6874997 21.375,-17.6874997 -3.196012,6.269167 -4.125744,27.8821367 -4.1875,56.4687497 H 55 V 36.9687 c -0.755252,-3.361877 -1.429184,-6.763373 -2.03125,-10.03125 -1.585969,-12.035064 0.756743,-22.5473447 1.625,-25.9374997 -0.225923,-2.6e-5 -10.16441,6.79e-4 -16.71875,0 z M 9,32.8437 v 5.90625 c 7.504646,3.097649 16.209587,11.083778 20.96875,20.25 h 5.125 C 32.838316,50.595328 18.221314,37.91816 9,32.8437 Z"
     style="color:#000000;clip-rule:nonzero;display:inline;overflow:visible;visibility:visible;isolation:auto;mix-blend-mode:normal;color-interpolation:sRGB;color-interpolation-filters:linearRGB;solid-color:#000000;solid-opacity:1;fill:url(#radialGradient3988-4);fill-opacity:1;fill-rule:nonzero;stroke:none;stroke-width:1;stroke-linecap:butt;stroke-linejoin:miter;stroke-miterlimit:4;stroke-dasharray:none;stroke-dashoffset:0;stroke-opacity:1;marker:none;color-rendering:auto;image-rendering:auto;shape-rendering:auto;text-rendering:auto;enable-background:accumulate" />
</svg>

<?xml version="1.0" encoding="UTF-8" standalone="no"?>
<svg
   xmlns:dc="http://purl.org/dc/elements/1.1/"
   xmlns:cc="http://creativecommons.org/ns#"
   xmlns:rdf="http://www.w3.org/1999/02/22-rdf-syntax-ns#"
   xmlns:svg="http://www.w3.org/2000/svg"
   xmlns="http://www.w3.org/2000/svg"
   xmlns:xlink="http://www.w3.org/1999/xlink"
   version="1.1"
   width="64"
   height="64"
   id="svg3844">
  <defs
     id="defs3846">
    <linearGradient
       x1="-51.786404"
       y1="50.786446"
       x2="-51.786404"
       y2="2.9062471"
       id="linearGradient3033"
       xlink:href="#linearGradient3104-6"
       gradientUnits="userSpaceOnUse"
       gradientTransform="matrix(1.0843523,0,0,1.1997367,79.550862,-4.1628601)" />
    <linearGradient
       id="linearGradient3104-6">
      <stop
         id="stop3106-3"
         style="stop-color:#000000;stop-opacity:0.31782946"
         offset="0" />
      <stop
         id="stop3108-9"
         style="stop-color:#000000;stop-opacity:0.24031007"
         offset="1" />
    </linearGradient>
    <linearGradient
       x1="23.99999"
       y1="5.8641062"
       x2="23.99999"
       y2="42.175503"
       id="linearGradient3093"
       xlink:href="#linearGradient3977-4"
       gradientUnits="userSpaceOnUse"
       gradientTransform="matrix(1.2162162,0,0,1.5405376,2.8108184,-6.9729501)" />
    <linearGradient
       id="linearGradient3977-4">
      <stop
         id="stop3979-7"
         style="stop-color:#ffffff;stop-opacity:1"
         offset="0" />
      <stop
         id="stop3981-6"
         style="stop-color:#ffffff;stop-opacity:0.23529412"
         offset="0" />
      <stop
         id="stop3983-5"
         style="stop-color:#ffffff;stop-opacity:0.15686275"
         offset="1" />
      <stop
         id="stop3985-6"
         style="stop-color:#ffffff;stop-opacity:0.39215687"
         offset="1" />
    </linearGradient>
    <linearGradient
       x1="25.132275"
       y1="0.98520643"
       x2="25.132275"
       y2="47.013336"
       id="linearGradient3096"
       xlink:href="#linearGradient3600-9"
       gradientUnits="userSpaceOnUse"
       gradientTransform="matrix(1.3142827,0,0,1.2602393,0.4572141,-2.1793201)" />
    <linearGradient
       id="linearGradient3600-9">
      <stop
         id="stop3602-3"
         style="stop-color:#f4f4f4;stop-opacity:1"
         offset="0" />
      <stop
         id="stop3604-7"
         style="stop-color:#dbdbdb;stop-opacity:1"
         offset="1" />
    </linearGradient>
    <radialGradient
       cx="605.71429"
       cy="486.64789"
       r="117.14286"
       fx="605.71429"
       fy="486.64789"
       id="radialGradient3153"
       xlink:href="#linearGradient5060"
       gradientUnits="userSpaceOnUse"
       gradientTransform="matrix(0.03132633,0,0,0.02058823,35.220859,49.45142)" />
    <linearGradient
       id="linearGradient5060">
      <stop
         id="stop5062"
         style="stop-color:#000000;stop-opacity:1"
         offset="0" />
      <stop
         id="stop5064"
         style="stop-color:#000000;stop-opacity:0"
         offset="1" />
    </linearGradient>
    <radialGradient
       cx="605.71429"
       cy="486.64789"
       r="117.14286"
       fx="605.71429"
       fy="486.64789"
       id="radialGradient3156"
       xlink:href="#linearGradient5060"
       gradientUnits="userSpaceOnUse"
       gradientTransform="matrix(-0.03132632,0,0,0.02058823,28.779136,49.45142)" />
    <linearGradient
       id="linearGradient5048">
      <stop
         id="stop5050"
         style="stop-color:#000000;stop-opacity:0"
         offset="0" />
      <stop
         id="stop5056"
         style="stop-color:#000000;stop-opacity:1"
         offset="0.5" />
      <stop
         id="stop5052"
         style="stop-color:#000000;stop-opacity:0"
         offset="1" />
    </linearGradient>
    <linearGradient
       x1="302.85715"
       y1="366.64789"
       x2="302.85715"
       y2="609.50507"
       id="linearGradient3842"
       xlink:href="#linearGradient5048"
       gradientUnits="userSpaceOnUse"
       gradientTransform="matrix(0.09153846,0,0,0.02058823,-1.084616,49.45142)" />
    <radialGradient
       xlink:href="#linearGradient3242-4"
       id="radialGradient3988-4"
       gradientUnits="userSpaceOnUse"
       gradientTransform="matrix(0,10.087121,-12.383763,0,155.87414,-97.777008)"
       cx="8.276144"
       cy="9.9941158"
       fx="8.276144"
       fy="9.9941158"
       r="12.671875" />
    <linearGradient
       id="linearGradient3242-4">
      <stop
         offset="0"
         style="stop-color:#f89b7e;stop-opacity:1"
         id="stop3244-7" />
      <stop
         offset="0.26238"
         style="stop-color:#e35d4f;stop-opacity:1"
         id="stop3246-1" />
      <stop
         offset="0.66093999"
         style="stop-color:#c6262e;stop-opacity:1"
         id="stop3248-5" />
      <stop
         offset="1"
         style="stop-color:#690b2c;stop-opacity:1"
         id="stop3250-7" />
    </linearGradient>
    <linearGradient
       xlink:href="#linearGradient3977-4-9"
       id="linearGradient3132"
       gradientUnits="userSpaceOnUse"
       gradientTransform="matrix(1.2162162,0,0,1.5405376,2.8108184,-6.97295)"
       x1="23.99999"
       y1="5.8641062"
       x2="23.99999"
       y2="42.100208" />
    <linearGradient
       id="linearGradient3977-4-9">
      <stop
         id="stop3979-7-7"
         style="stop-color:#ffffff;stop-opacity:1"
         offset="0" />
      <stop
         id="stop3981-6-7"
         style="stop-color:#ffffff;stop-opacity:0.23529412"
         offset="0.01214366" />
      <stop
         id="stop3983-5-5"
         style="stop-color:#ffffff;stop-opacity:0.15686275"
         offset="0.98781353" />
      <stop
         id="stop3985-6-6"
         style="stop-color:#ffffff;stop-opacity:0.39215687"
         offset="1" />
    </linearGradient>
  </defs>
  <metadata
     id="metadata3849">
    <rdf:RDF>
      <cc:Work
         rdf:about="">
        <dc:format>image/svg+xml</dc:format>
        <dc:type
           rdf:resource="http://purl.org/dc/dcmitype/StillImage" />
        <dc:title />
      </cc:Work>
    </rdf:RDF>
  </metadata>
  <rect
     style="display:inline;overflow:visible;visibility:visible;opacity:0.3;fill:url(#linearGradient3842);fill-opacity:1;fill-rule:nonzero;stroke:none;stroke-width:1;marker:none"
     id="rect2879"
     y="57.000004"
     x="9.8999996"
     height="5"
     width="44.199997" />
  <path
     style="display:inline;overflow:visible;visibility:visible;opacity:0.3;fill:url(#radialGradient3156);fill-opacity:1;fill-rule:nonzero;stroke:none;stroke-width:1;marker:none"
     id="path2881"
     d="m 9.9,57.00022 c 0,0 0,4.9997 0,4.9997 -1.6132281,0.01 -3.9,-1.1202 -3.9,-2.5002 0,-1.38 1.8002408,-2.4995 3.9,-2.4995 z" />
  <path
     style="display:inline;overflow:visible;visibility:visible;opacity:0.3;fill:url(#radialGradient3153);fill-opacity:1;fill-rule:nonzero;stroke:none;stroke-width:1;marker:none"
     id="path2883"
     d="m 54.099999,57.00022 c 0,0 0,4.9997 0,4.9997 C 55.713227,62.00992 58,60.87972 58,59.49972 c 0,-1.38 -1.800241,-2.4995 -3.900001,-2.4995 z" />
  <path
     style="display:inline;fill:url(#linearGradient3096);fill-opacity:1;stroke:none"
     id="path4160-6"
     d="m 9,0.9998799 c 10.540935,0 45.999945,0.004 45.999945,0.004 L 55,59.00002 c 0,0 -30.666666,0 -46,0 0,-19.3334 0,-38.6665 0,-57.9998201 z" />
  <path
     style="fill:none;stroke:url(#linearGradient3093);stroke-width:1;stroke-linecap:round;stroke-linejoin:miter;stroke-miterlimit:4;stroke-dasharray:none;stroke-dashoffset:0;stroke-opacity:1"
     id="rect6741-1-8"
     d="m 54.499999,58.50002 -44.9999992,0 0,-57.0000401 44.9999992,0 z" />
  <path
     style="display:inline;fill:none;stroke:url(#linearGradient3033);stroke-width:0.9999218;stroke-linecap:butt;stroke-linejoin:round;stroke-miterlimit:4;stroke-dasharray:none;stroke-dashoffset:0;stroke-opacity:1"
     id="path4160-6-1"
     d="m 8.4999684,0.4998999 c 10.7700936,0 47.0000286,0.004 47.0000286,0.004 l 4.9e-5,58.9962201 c 0,0 -31.333384,0 -47.0000776,0 0,-19.6668 0,-39.3334 0,-58.9999701 z" />
  <path
     id="path6711"
     d="M 37.875,0.99999967 C 24.426461,12.539579 14.910308,17.33263 9,19.3125 l 0,6.125 c 3.284751,-0.967238 7.356975,-2.565106 11.59375,-5.21875 9.747583,-6.105262 21.375,-17.6875003 21.375,-17.6875003 C 38.772738,8.8004167 37.843006,30.413387 37.78125,59 L 55,59 55,36.96875 C 54.244748,33.606873 53.570816,30.205377 52.96875,26.9375 51.382781,14.902436 53.725493,4.3901548 54.59375,0.99999967 c -0.225923,-2.54e-5 -10.16441,6.7953e-4 -16.71875,0 z M 9,32.84375 9,38.75 C 16.504646,41.847649 25.209587,49.833778 29.96875,59 l 5.125,0 C 32.838316,50.595378 18.221314,37.91821 9,32.84375 Z"
     style="color:#000000;clip-rule:nonzero;display:inline;overflow:visible;visibility:visible;opacity:1;isolation:auto;mix-blend-mode:normal;color-interpolation:sRGB;color-interpolation-filters:linearRGB;solid-color:#000000;solid-opacity:1;fill:url(#radialGradient3988-4);fill-opacity:1;fill-rule:nonzero;stroke:none;stroke-width:0.99999994;stroke-linecap:butt;stroke-linejoin:miter;stroke-miterlimit:4;stroke-dasharray:none;stroke-dashoffset:0;stroke-opacity:1;marker:none;color-rendering:auto;image-rendering:auto;shape-rendering:auto;text-rendering:auto;enable-background:accumulate" />
  <path
     id="path6713"
     d="M 55,1.3749997 C 47.699975,5.7934829 26.879425,17.4504 9,18.5 L 9,32.1875 C 19.438497,33.237626 41.436724,34.536348 55,28.75 L 55,1.3749997 Z M 55,37.125 C 49.37478,43.641608 44.044801,51.222798 40.15625,58.96875 l 6.125,0 C 48.859598,54.613034 51.903942,49.985265 55,45.9375 l 0,-8.8125 z"
     style="opacity:0.1;fill:#8c0000;fill-opacity:1;fill-rule:evenodd;stroke:none" />
  <path
     style="opacity:0.3;fill:none;stroke:url(#linearGradient3132);stroke-width:1;stroke-linecap:round;stroke-linejoin:miter;stroke-miterlimit:4;stroke-dasharray:none;stroke-dashoffset:0;stroke-opacity:1"
     d="m 9.5,19.126953 0,6.146485 M 37.785156,58.5 54.5,58.5 54.5,34.613281 M 54.472656,1.5 37.28125,1.5 M 9.5,33.134766 l 0,5.839843 M 29.693359,58.5 l 5.246094,0"
     id="rect6741-1-8-0" />
  <path
     style="color:#000000;display:inline;overflow:visible;visibility:visible;opacity:0.2;fill:none;stroke:#410000;stroke-width:1;stroke-linecap:round;stroke-linejoin:round;stroke-miterlimit:4;stroke-dasharray:none;stroke-dashoffset:0;stroke-opacity:1;marker:none;enable-background:accumulate"
     d="m 8.5,19.443344 0,5.915737 M 37.990732,59.5 55.5,59.5 55.5,37.284394 M 54.333799,0.50390622 38.329544,0.50195322 M 8.5,32.948382 l 0,5.642608 m 21.604322,20.869951 4.911011,0.03906"
     id="path4160-6-1-0" />
</svg>
